!!!OTL: Huldigungen.
!!!OTL-incipit: KOMMT BRUEDER TRINKET FROH
!!!COM: W. Tschirch
!!!ARE: Europa, Mitteleuropa, Deutschland
!!!SCT: F0552
!!!TXL: @@DE
!!!YEM: Copyright 1995, estate of Helmut Schaffrath.
**kern	**text
*ICvox	*
*M2/4	*
*k[b-]	*
*F:	*
!LO:TX:a:t=Ziemlich schnell und munter.	!
{8cc	Kommt
=1	=1
8.cc	Brü-
16a	-der,
8b-/	trin-
8g	-ket
=2	=2
8f'	froh
8a'	mit
8g'}	mir,
{8g	ſeht
=3	=3
8.a	wie
16f	die
8a	Be-
8bn	-cher
=4	=4
4dd	ſchäu-
8cc}	-men!
{8cc	Bei
=5	=5
8.cc	vol-
16a	-len
8b-/	Glä-
8g	-ſern
=6	=6
8f'	wol-
8a'	-len
8g'}	wir
{8g	ein
=7	=7
8.a	Stünd-
16f	-chen
8a	hier
8bn	ver-
=8	=8
4dd	-träu-
8cc}	-men!
{8cc	Das
=9	=9
8.g	Au-
16a	-ge
8g	flammt,
8cc	die
=10	=10
8.g	Wan-
16a	-ge
8g}	glüht,
{8g	in
=11	=11
8.a	küh-
16g	-nern
8f	Tö-
8e	-nen
=12	=12
8f'	rauſcht
8g'	das
8a'}	Lied,
{8a	ſchon
=13	=13
8.b-	winkt
16b-	der
8cc	Göt-
8cc	-ter-
=14	=14
4dd	-wein!
8r}	.
{8b-	ſchon
=15	=15
8.g	winkt
16g	der
8cc/	Göt-
8cc/	-ter
=16	=16
8f	wein!
16r	.
16c	Schenkt
8f	ein,
16r}	.
{16f	ſchenkt
=17	=17
8a	ein,
16r	.
16a	ſchenkt
8cc	ein,
16r	.
16cc	ſchenkt
=18	=18
4ff	ein!
8r}	.
==	==
!!!AGN: Studenten -, Trink - Lied
!!!ONB: ESAC (Essen Associative Code) Database: FINK
!!!AMT: simple duple
!!!AIN: vox
!!!EED: Helmut Schaffrath
!!!EEV: 1.0
!!!GTL: Studentenlieder
!!Text: Th. Koerner
!!!source: Musikalischer Hausschatz der Deutschen. Eine Sammlung von über 1000 Liedern und Gesängen mit Singstimmen und Klavierbegleitung. Leipzig, Litterarisches Verlags-Haus.
!!!page: 356
!!!ENC: Anna Maria Matuszewska
!!!EEV: 2025/03/18
*-	*-
